svg/set/WOC/WM.svg

<?xml version="1.0" encoding="UTF-8"?>
<svg id="Layer_2" data-name="Layer 2" xmlns="http://www.w3.org/2000/svg" viewBox="0 0 916.63 999.53">
  <defs>
    <style>
      .cls-1 {
        fill-rule: evenodd;
        stroke-width: 0px;
      }
    </style>
  </defs>
  <g id="Layer_1-2" data-name="Layer 1">
    <path class="cls-1" d="M458.32,999.53c-101.64-56.42-199.86-122.42-296.09-193.99,19.15-211.24,11.95-426.64-26.83-647.03,47.9,16.81,100.16,36.1,179.34,63.68,34.92,46.62,78.34,82.81,143.58,82.81s108.65-36.19,143.57-82.81c79.18-27.59,131.45-46.87,179.35-63.68-38.78,220.39-45.98,435.79-26.84,647.03-96.23,71.57-194.45,137.57-296.08,193.99ZM458.32,425.5c-44.58,82.19-95.08,151.57-151.56,207.95,63.46,58.4,113.92,126.79,151.56,205.04,37.63-78.25,88.1-146.64,151.55-205.04-56.48-56.38-106.98-125.76-151.55-207.95h0ZM128.29,780.01c-25.37-19.3-50.62-38.95-75.76-58.88,12-213.16-5.21-413.04-43.13-603.5,32.4,9.6,60,18.38,86.99,27.47,39.88,216.25,48.82,427.63,31.9,634.92h0ZM788.33,780.01c-16.91-207.29-7.98-418.67,31.91-634.92,26.99-9.08,54.58-17.87,86.99-27.47-37.92,190.46-55.14,390.35-43.14,603.5-25.14,19.93-50.39,39.59-75.76,58.88h0Z"/>
    <path class="cls-1" d="M458.28,267.47c-52.7-.01-98.22-31.08-119.21-75.88L0,61.63C36.24,46.55,75.06,23.46,111.31,0c21.48,19.14,107.52,73.07,179.22,91.14,98.3,24.79,156.58,83.72,167.78,163.94,11.2-80.22,69.47-139.15,167.77-163.94,71.7-18.07,157.74-72,179.22-91.14,36.25,23.46,75.07,46.55,111.32,61.63l-339.08,129.96c-20.99,44.8-66.49,75.86-119.21,75.88h-.06Z"/>
  </g>
</svg>

<?xml version="1.0" encoding="UTF-8" standalone="no"?>
<svg
   id="Layer_2"
   data-name="Layer 2"
   viewBox="0 0 916.61999 999.53"
   version="1.1"
   width="916.62"
   height="999.53003"
   xmlns="http://www.w3.org/2000/svg"
   xmlns:svg="http://www.w3.org/2000/svg">
  <defs
     id="defs1">
    <style
       id="style1">
      .cls-1 {
        fill-rule: evenodd;
        stroke-width: 0px;
      }
    </style>
  </defs>
  <g
     id="Layer_1-2"
     data-name="Layer 1">
    <path
       class="cls-1"
       d="M 458.32,999.53 C 356.68,943.11 258.46,877.11 162.23,805.54 181.38,594.3 174.18,378.9 135.4,158.51 c 47.9,16.81 100.16,36.1 179.34,63.68 34.92,46.62 78.34,82.81 143.58,82.81 65.24,0 108.65,-36.19 143.57,-82.81 C 681.07,194.6 733.34,175.32 781.24,158.51 742.46,378.9 735.26,594.3 754.4,805.54 658.17,877.11 559.95,943.11 458.32,999.53 Z m 0,-574.03 c -44.58,82.19 -95.08,151.57 -151.56,207.95 63.46,58.4 113.92,126.79 151.56,205.04 37.63,-78.25 88.1,-146.64 151.55,-205.04 C 553.39,577.07 502.89,507.69 458.32,425.5 Z M 128.29,780.01 C 102.92,760.71 77.67,741.06 52.53,721.13 64.53,507.97 47.32,308.09 9.4,117.63 c 32.4,9.6 60,18.38 86.99,27.47 39.88,216.25 48.82,427.63 31.9,634.92 v 0 z m 660.04,0 c -16.91,-207.29 -7.98,-418.67 31.91,-634.92 26.99,-9.08 54.58,-17.87 86.99,-27.47 -37.92,190.46 -55.14,390.35 -43.14,603.5 -25.14,19.93 -50.39,39.59 -75.76,58.88 v 0 z"
       id="path1" />
    <path
       class="cls-1"
       d="m 458.28,267.47 c -52.7,-0.01 -98.22,-31.08 -119.21,-75.88 L 0,61.63 C 36.24,46.55 75.06,23.46 111.31,0 c 21.48,19.14 107.52,73.07 179.22,91.14 98.3,24.79 156.58,83.72 167.78,163.94 11.2,-80.22 69.47,-139.15 167.77,-163.94 71.7,-18.07 157.74,-72 179.22,-91.14 36.25,23.46 75.07,46.55 111.32,61.63 L 577.54,191.59 c -20.99,44.8 -66.49,75.86 -119.21,75.88 h -0.06 z"
       id="path2" />
  </g>
</svg>
